gnomExtensions/.local/share/gnome-shell/extensions/Bluetooth-Battery-Meter@maniacx.github.com/icons/hicolor/scalable/actions/bbm-earbuds-neckband-symbolic.svg

<svg height="16" viewBox="0 0 16 16" width="16" xmlns="http://www.w3.org/2000/svg"><path d="m5.2760355 2.5930039c-.4018833-.0052073-.8251069.0866335-1.2280548.285782-.059104.0298544-.1173076.0616695-.1740395.0955408-.0567307.0338702-.1121594.069844-.1662173.1075527.1417174.0700009.2772294.1514948.4050676.2435999.1278381.0921018.2479422.1947127.359254.3070129.3967136.4022485.6564906.902354.7651596 1.4328242.1086722.530468.0664491 1.0912471-.1405163 1.6152434.122516-.0226274.2439222-.0538602.3631646-.093304.1192404-.0394449.23636-.0869676.3500353-.1424737.5862352-.28951 1.0181114-.7513308 1.2428601-1.2638115.2247486-.5124795.242187-1.0755834-.0011173-1.5680333-.243356-.4923833-.7012309-.8208783-1.2448164-.9537261-.1698711-.041514-.3481047-.0638406-.5307796-.0662073zm5.4541745 0c-.182675.0023667-.36091.0246933-.53078.0662073-.5435871.1328478-1.0014618.4613428-1.2448178.9537261-.2433022.4924499-.2258638 1.0555538-.0011162 1.5680333.2247487.5124807.6566229.9743015 1.24286 1.2638115.113676.0555061.230793.1030288.350036.1424737.11924.0394438.240649.0706766.363163.093304-.206964-.5239963-.249186-1.0847754-.140516-1.6152434.108669-.5304702.368447-1.0305757.765159-1.4328242.111313-.1123002.231417-.2149111.359254-.3070129.12784-.0921051.263351-.173599.405068-.2435999-.054058-.0377087-.109487-.0736825-.166217-.1075527-.056732-.0338713-.114936-.0656864-.17404-.0955408-.402947-.1991485-.826171-.2909893-1.228053-.285782zm2.808378.5522897c-1.309782.0176619-2.35894 1.0906702-2.34716 2.4005176.011348.9781648.62023 1.8497061 1.534788 2.1968654v.8137674.0614588c0 .2768051.176275.4354699.456191.4525602v4.275284h.001118v.061459h.781641v-4.3364636c.27967-.0156422.456191-.1607984.456191-.4528396v-.8777401c.110464-.0432846.2164-.0951766.317629-.1542053.042516-.0247729.084254-.0508585.125153-.0782205.01656-.0111526.032359-.0233483.048606-.0349198.644266-.4400691 1.031843-1.1680388 1.037255-1.9482367l-.00028-.0430213c-.023592-1.3096927-1.101347-2.3539822-2.411132-2.3362655zm-11.1413292.0614589c-1.3097822.0176608-2.35893941 1.0906691-2.34716052 2.4005165.01134702.9781658.62023005 1.8497072 1.53478972 2.1968665v.8137673c0 .2920412.1765201.4371974.4561904.4528396v4.3364636h.7816418v-4.3364636c.2806071-.0167111.4573077-.1756413.4573077-.4528396v-.8162813c.9184753-.3516252 1.5259638-1.2321028 1.5286443-2.2155822l-.0002804-.0430214c-.0235933-1.3096926-1.1013479-2.3539821-2.411133-2.3362654zm11.1497102 1.3023636c.574916-.007792 1.047962.4506436 1.058205 1.02552l.00028.0187168c.000015.5748721-.464624 1.0416348-1.039489 1.0442379-.574882.0026493-1.043774-.4598742-1.048988-1.0347387-.005293-.5748989.455122-1.0459278 1.029992-1.053736zm-11.1413294.0614589c.5749161-.0077921 1.0479626.4506436 1.0582052 1.0255199l.0002793.018718c.0000161.5748709-.4646227 1.0416326-1.0394883 1.0442368-.5748828.0026493-1.0437752-.4598753-1.0489878-1.0347398-.0052921-.5748978.4551228-1.0459256 1.0299916-1.0537349zm.0262597.4478095c-.3094828 0-.6020148.2773605-.6020148.6031322 0 .3094816.2762421.6017365.6020148.6017355.3257695 0 .6031321-.2922539.6031321-.6017355 0-.3094839-.2936515-.6031322-.6031321-.6031322zm11.1424457 0c-.30948 0-.603131.2936483-.603131.6031322 0 .3094816.277361.6017355.603131.6017355.325773.000001.602015-.2922539.602015-.6017355 0-.3257717-.292532-.6031322-.602015-.6031322z" fill="#2e3436"/></svg>

<?xml version="1.0" encoding="UTF-8"?>
<svg height="16px" viewBox="0 0 16 16" width="16px" xmlns="http://www.w3.org/2000/svg">
    <path d="M 5.2760355,2.5930039 C 4.8741522,2.5877966 4.4509286,2.6796374 4.0479807,2.8787859 C 3.9888767,2.9086403 3.9306731,2.9404554 3.8739412,2.9743267 C 3.8172105,3.0081969 3.7617818,3.0441707 3.7077239,3.0818794 C 3.8494413,3.1518803 3.9849533,3.2333742 4.1127915,3.3254793 C 4.2406296,3.4175811 4.3607337,3.520192 4.4720455,3.6324922 C 4.8687591,4.0347407 5.1285361,4.5348462 5.2372051,5.0653164 C 5.3458773,5.5957844 5.3036542,6.1565635 5.0966888,6.6805598 C 5.2192048,6.6579324 5.340611,6.6266996 5.4598534,6.5872558 C 5.5790938,6.5478109 5.6962134,6.5002882 5.8098887,6.4447821 C 6.3961239,6.1552721 6.8280001,5.6934513 7.0527488,5.1809706 C 7.2774974,4.6684911 7.2949358,4.1053872 7.0516315,3.6129373 C 6.8082755,3.120554 6.3504006,2.792059 5.8068151,2.6592112 C 5.636944,2.6176972 5.4587104,2.5953706 5.2760355,2.5930039 Z M 10.73021,2.5930039 C 10.547535,2.5953706 10.3693,2.6176972 10.19943,2.6592112 C 9.6558429,2.792059 9.1979682,3.120554 8.9546122,3.6129373 C 8.71131,4.1053872 8.7287484,4.6684911 8.953496,5.1809706 C 9.1782447,5.6934513 9.6101189,6.1552721 10.196356,6.4447821 C 10.310032,6.5002882 10.427149,6.5478109 10.546392,6.5872558 C 10.665632,6.6266996 10.787041,6.6579324 10.909555,6.6805598 C 10.702591,6.1565635 10.660369,5.5957844 10.769039,5.0653164 C 10.877708,4.5348462 11.137486,4.0347407 11.534198,3.6324922 C 11.645511,3.520192 11.765615,3.4175811 11.893452,3.3254793 C 12.021292,3.2333742 12.156803,3.1518803 12.29852,3.0818794 C 12.244462,3.0441707 12.189033,3.0081969 12.132303,2.9743267 C 12.075571,2.9404554 12.017367,2.9086403 11.958263,2.8787859 C 11.555316,2.6796374 11.132092,2.5877966 10.73021,2.5930039 Z M 13.538588,3.1452936 C 12.228806,3.1629555 11.179648,4.2359638 11.191428,5.5458112 C 11.202776,6.523976 11.811658,7.3955173 12.726216,7.7426766 V 8.556444 V 8.6179028 C 12.726216,8.8947079 12.902491,9.0533727 13.182407,9.070463 V 13.345747 H 13.183525 V 13.407206 H 13.965166 V 9.0707424 C 14.244836,9.0551002 14.421357,8.909944 14.421357,8.6179028 V 7.7401627 C 14.531821,7.6968781 14.637757,7.6449861 14.738986,7.5859574 C 14.781502,7.5611845 14.82324,7.5350989 14.864139,7.5077369 C 14.880699,7.4965843 14.896498,7.4843886 14.912745,7.4728171 C 15.557011,7.032748 15.944588,6.3047783 15.95,5.5245804 L 15.94972,5.4815591 C 15.926128,4.1718664 14.848373,3.1275769 13.538588,3.1452936 Z M 2.3972588,3.2067525 C 1.0874766,3.2244133 0.03831939,4.2974216 0.05009828,5.607269 C 0.0614453,6.5854348 0.67032833,7.4569762 1.584888,7.8041355 V 8.6179028 C 1.584888,8.909944 1.7614081,9.0551002 2.0410784,9.0707424 V 13.407206 H 2.8227202 V 9.0707424 C 3.1033273,9.0540313 3.2800279,8.8951011 3.2800279,8.6179028 V 7.8016215 C 4.1985032,7.4499963 4.8059917,6.5695187 4.8086722,5.5860393 L 4.8083918,5.5430179 C 4.7847985,4.2333253 3.7070439,3.1890358 2.3972588,3.2067525 Z M 13.546969,4.5091161 C 14.121885,4.5013241 14.594931,4.9597597 14.605174,5.5346361 L 14.605454,5.5533529 C 14.605469,6.128225 14.14083,6.5949877 13.565965,6.5975908 C 12.991083,6.6002401 12.522191,6.1377166 12.516977,5.5628521 C 12.511684,4.9879532 12.972099,4.5169243 13.546969,4.5091161 Z M 2.4056396,4.570575 C 2.9805557,4.5627829 3.4536022,5.0212186 3.4638448,5.5960949 L 3.4641241,5.6148129 C 3.4641402,6.1896838 2.9995014,6.6564455 2.4246358,6.6590497 C 1.849753,6.661699 1.3808606,6.1991744 1.375648,5.6243099 C 1.3703559,5.0494121 1.8307708,4.5783843 2.4056396,4.570575 Z M 2.4318993,5.0183845 C 2.1224165,5.0183845 1.8298845,5.295745 1.8298845,5.6215167 C 1.8298845,5.9309983 2.1061266,6.2232532 2.4318993,6.2232522 C 2.7576688,6.2232522 3.0350314,5.9309983 3.0350314,5.6215167 C 3.0350314,5.3120328 2.7413799,5.0183845 2.4318993,5.0183845 Z M 13.574345,5.0183845 C 13.264865,5.0183845 12.971214,5.3120328 12.971214,5.6215167 C 12.971214,5.9309983 13.248575,6.2232522 13.574345,6.2232522 C 13.900118,6.2232532 14.17636,5.9309983 14.17636,5.6215167 C 14.17636,5.295745 13.883828,5.0183845 13.574345,5.0183845 Z" fill="#2e3434"/>
</svg>
